!!!SOCIAL_FUNCTION: stomp dance songs
!!!PDT:	1943
!!!LING_GROUP: Muskogean
!!!LANG: Non-Tone
Specific Region: Oklahoma, California, Mississippi, Louisiana, Texas, Alabama
!!!REG: Southeast
!!!COM: Anon.
!!!OTL: Stomp Dance Song (g)
!!!ODT: <1933//
!!!MPN: Lapintabeseihoke [Kills it Himself, Sidney Wesley]
!!!MLC: Philadelphia, Mississippi, United States of America
!! Song was recorded in January 1933.
!!!AGN: monody
!!!AMT: simple duple
!!!RWG: Transcribed pitches, durations, and meters are only approximate.
**kern
*ICvox
*Imale
*clefF4
*k[b-e-]
*M2/4
*MM116
=1-
8c
8c
4c
=2
(4B-
8G)
8r
=3
8c
8c
4c
=4
(4B-
8G)
16r
16G
=5
2d
=6
4c
8c
16r
16d
=7
2c
=8
(4B-
8G)
8r
=9
8c
8c
8c
8r
=10
(4B-
8G)
8r
=11
4d
8c
8B-
=12
(4B-
8F)
8r
=13
4d
8c
8B-
=14
(4B-
8G)
8r
=15
8c
8c
4c
=16
(4B-
8G)
8r
=17
8c
8c
4c
=18
(4B-
8G)
8r
=19
8d
8c
8d
8c
=20
4B-
8F
8r
=21
8d
8c
8d
8c
=22
(4B-
8G)
8r
=23
8B-
8B-
4c
=24
(4B-
8G)
8r
=25
8c
8c
4c
=26
(4B-
8G)
8r
=27
8c
8c
8c
8B-
=28
(4B-
8G)
8r
=29
4d
8c
8B-
=30
(4B-
8F)
8r
=31
4d
8c
8B-
=32
(4B-
8G)
8r
=33
8c
8c
4B-
=34
(4B-
8G)
8r
=35
8c
8c
8c
8B-
=36
(4B-
8G)
8r
=37
8c
8c
8c
8B-
=38
(4B-
8G)
16r
16B-
=39
4B-
4r
=40
4B-
4r
==
*-
!!!CNT: Choctaw
!!!TXO: Choctaw
!!!OCY: United States
!!!OCL: Frances Densmore
!!!YOR: Frances Densmore, "Choctaw Music"
!!!YOR: Bulletin 136, page 167, No. 50
!!!PPR: Smithsonian Institution, Bureau of American Ethnology
!!!PPR: Government Printing Office
!!!PDT: 1943
!!!PPP: Washington, DC, United States of America
!!!YEC: Electronic Copyright 2000 David Huron
!!!YER: August 2000
!!!YEN: United States of America
!!!ENC: David Huron
!!!RDT: August 29, 2000
!!!EEV: Release 1.0
!!!AIN: vox
